static/assets/images/pink_blue_gradient.svg

<?xml version="1.0" encoding="UTF-8" standalone="no"?>
<!-- Created with Inkscape (http://www.inkscape.org/) -->

<svg
   xmlns:dc="http://purl.org/dc/elements/1.1/"
   xmlns:cc="http://creativecommons.org/ns#"
   xmlns:rdf="http://www.w3.org/1999/02/22-rdf-syntax-ns#"
   xmlns:svg="http://www.w3.org/2000/svg"
   xmlns="http://www.w3.org/2000/svg"
   xmlns:xlink="http://www.w3.org/1999/xlink"
   xmlns:sodipodi="http://sodipodi.sourceforge.net/DTD/sodipodi-0.dtd"
   xmlns:inkscape="http://www.inkscape.org/namespaces/inkscape"
   width="341.6626mm"
   height="298.55048mm"
   viewBox="0 0 341.6626 298.55048"
   version="1.1"
   id="svg8"
   inkscape:version="0.92.4 (5da689c313, 2019-01-14)"
   sodipodi:docname="pink_blue_gradient.svg">
  <defs
     id="defs2">
    <linearGradient
       inkscape:collect="always"
       id="linearGradient4707">
      <stop
         style="stop-color:#fe66cb;stop-opacity:1;"
         offset="0"
         id="stop4703" />
      <stop
         style="stop-color:#fe66cb;stop-opacity:0;"
         offset="1"
         id="stop4705" />
    </linearGradient>
    <linearGradient
       inkscape:collect="always"
       id="linearGradient4675">
      <stop
         style="stop-color:#5bcefa;stop-opacity:1;"
         offset="0"
         id="stop4671" />
      <stop
         style="stop-color:#5bcefa;stop-opacity:0;"
         offset="1"
         id="stop4673" />
    </linearGradient>
    <linearGradient
       inkscape:collect="always"
       id="linearGradient4667">
      <stop
         style="stop-color:#429bbb;stop-opacity:1;"
         offset="0"
         id="stop4663" />
      <stop
         style="stop-color:#429bbb;stop-opacity:0;"
         offset="1"
         id="stop4665" />
    </linearGradient>
    <linearGradient
       inkscape:collect="always"
       id="linearGradient4659">
      <stop
         style="stop-color:#82dafb;stop-opacity:1;"
         offset="0"
         id="stop4655" />
      <stop
         style="stop-color:#82dafb;stop-opacity:0;"
         offset="1"
         id="stop4657" />
    </linearGradient>
    <linearGradient
       inkscape:collect="always"
       id="linearGradient4643">
      <stop
         style="stop-color:#fe66cb;stop-opacity:1;"
         offset="0"
         id="stop4639" />
      <stop
         style="stop-color:#fe66cb;stop-opacity:0;"
         offset="1"
         id="stop4641" />
    </linearGradient>
    <linearGradient
       inkscape:collect="always"
       id="linearGradient4635">
      <stop
         style="stop-color:#fe66cb;stop-opacity:1;"
         offset="0"
         id="stop4631" />
      <stop
         style="stop-color:#fe66cb;stop-opacity:0;"
         offset="1"
         id="stop4633" />
    </linearGradient>
    <linearGradient
       inkscape:collect="always"
       id="linearGradient4611">
      <stop
         style="stop-color:#82dafb;stop-opacity:1;"
         offset="0"
         id="stop4607" />
      <stop
         style="stop-color:#82dafb;stop-opacity:0;"
         offset="1"
         id="stop4609" />
    </linearGradient>
    <linearGradient
       inkscape:collect="always"
       xlink:href="#linearGradient4611"
       id="linearGradient4613"
       x1="71.392418"
       y1="55.66293"
       x2="136.11037"
       y2="55.66293"
       gradientUnits="userSpaceOnUse"
       gradientTransform="matrix(-3.3957366,0.00950162,0.00595141,3.3113039,463.39374,564.64142)" />
    <linearGradient
       inkscape:collect="always"
       xlink:href="#linearGradient4643"
       id="linearGradient4629"
       x1="90.713448"
       y1="63.077618"
       x2="130.53287"
       y2="63.077618"
       gradientUnits="userSpaceOnUse"
       gradientTransform="matrix(-3.3957366,0.00950162,0.00595141,3.3113039,463.39374,564.64142)" />
    <linearGradient
       inkscape:collect="always"
       xlink:href="#linearGradient4635"
       id="linearGradient4637"
       x1="57.695709"
       y1="66.823059"
       x2="117.3669"
       y2="66.823059"
       gradientUnits="userSpaceOnUse"
       gradientTransform="matrix(-3.3957366,0.00950162,0.00595141,3.3113039,463.39374,564.64142)" />
    <linearGradient
       inkscape:collect="always"
       xlink:href="#linearGradient4659"
       id="linearGradient4661"
       x1="82.410912"
       y1="78.533272"
       x2="127.7058"
       y2="78.533272"
       gradientUnits="userSpaceOnUse"
       gradientTransform="matrix(-3.3957366,0.00950162,0.00595141,3.3113039,463.39374,564.64142)" />
    <linearGradient
       inkscape:collect="always"
       xlink:href="#linearGradient4667"
       id="linearGradient4669"
       x1="47.719055"
       y1="83.606628"
       x2="96.683968"
       y2="83.606628"
       gradientUnits="userSpaceOnUse"
       gradientTransform="matrix(-3.3957366,0.00950162,0.00595141,3.3113039,463.39374,564.64142)" />
    <linearGradient
       inkscape:collect="always"
       xlink:href="#linearGradient4675"
       id="linearGradient4677"
       x1="45.496658"
       y1="52.629562"
       x2="95.065514"
       y2="52.629562"
       gradientUnits="userSpaceOnUse"
       gradientTransform="matrix(-3.3957366,0.00950162,0.00595141,3.3113039,463.39374,564.64142)" />
    <linearGradient
       inkscape:collect="always"
       xlink:href="#linearGradient4707"
       id="linearGradient4709"
       x1="100.48606"
       y1="82.449242"
       x2="140.3055"
       y2="82.449242"
       gradientUnits="userSpaceOnUse"
       gradientTransform="matrix(-3.3957366,0.00950162,0.00595141,3.3113039,463.39374,564.64142)" />
    <linearGradient
       inkscape:collect="always"
       xlink:href="#linearGradient4643"
       id="linearGradient4743"
       x1="161.22578"
       y1="64.938309"
       x2="68.243645"
       y2="37.724026"
       gradientUnits="userSpaceOnUse"
       gradientTransform="matrix(1.6290631,0,0,2.4391072,-29.694895,640.14654)"
       spreadMethod="pad" />
    <linearGradient
       inkscape:collect="always"
       xlink:href="#linearGradient4675"
       id="linearGradient4743-0"
       x1="161.22578"
       y1="64.938309"
       x2="68.243645"
       y2="37.724026"
       gradientUnits="userSpaceOnUse"
       gradientTransform="matrix(1.376482,0,-2.2619009e-8,2.9353906,651.33224,-31.061612)" />
  </defs>
  <sodipodi:namedview
     id="base"
     pagecolor="#ffffff"
     bordercolor="#666666"
     borderopacity="1.0"
     inkscape:pageopacity="0.0"
     inkscape:pageshadow="2"
     inkscape:zoom="0.49497475"
     inkscape:cx="424.63125"
     inkscape:cy="582.14851"
     inkscape:document-units="mm"
     inkscape:current-layer="layer1"
     showgrid="false"
     inkscape:window-width="1858"
     inkscape:window-height="1016"
     inkscape:window-x="62"
     inkscape:window-y="27"
     inkscape:window-maximized="1"
     fit-margin-top="-1"
     fit-margin-left="-1"
     fit-margin-right="-1"
     fit-margin-bottom="-1" />
  <metadata
     id="metadata5">
    <rdf:RDF>
      <cc:Work
         rdf:about="">
        <dc:format>image/svg+xml</dc:format>
        <dc:type
           rdf:resource="http://purl.org/dc/dcmitype/StillImage" />
        <dc:title></dc:title>
      </cc:Work>
    </rdf:RDF>
  </metadata>
  <g
     inkscape:label="Layer 1"
     inkscape:groupmode="layer"
     id="layer1"
     transform="translate(27.734404,-641.22855)">
    <rect
       style="fill:url(#linearGradient4743);fill-opacity:1;fill-rule:nonzero;stroke:none;stroke-width:0.54706323;stroke-opacity:1"
       id="rect4735"
       width="342.44125"
       height="285.20584"
       x="-29.694845"
       y="641.27936"
       transform="matrix(0.99999436,-0.00335765,0.00149779,0.99999888,0,0)" />
    <rect
       style="fill:url(#linearGradient4743-0);fill-opacity:1;stroke:none;stroke-width:0.55165982;stroke-opacity:1"
       id="rect4735-6"
       width="289.34683"
       height="343.23642"
       x="651.33228"
       y="-29.698391"
       transform="matrix(0.00147976,0.99999891,0.99999423,-0.00339851,0,0)" />
    <path
       style="fill:url(#linearGradient4677);fill-opacity:1;stroke:none;stroke-width:0.88721746px;stroke-linecap:butt;stroke-linejoin:miter;stroke-opacity:1"
       d="M 308.64687,801.88063 141.99626,798.60478 255.65709,677.31287 Z"
       id="path3713"
       inkscape:connector-curvature="0" />
    <path
       style="fill:url(#linearGradient4709);fill-opacity:1;stroke:none;stroke-width:0.88721746px;stroke-linecap:butt;stroke-linejoin:miter;stroke-opacity:1"
       d="M 121.79646,791.71256 18.561733,919.44362 -12.132387,758.01423 Z"
       id="path3713-3"
       inkscape:connector-curvature="0" />
    <path
       style="fill:url(#linearGradient4661);fill-opacity:1;stroke:none;stroke-width:0.88721746px;stroke-linecap:butt;stroke-linejoin:miter;stroke-opacity:1"
       d="M 137.35635,747.4389 183.45145,903.59417 31.050033,833.89974 Z"
       id="path3713-3-6"
       inkscape:connector-curvature="0" />
    <path
       style="fill:url(#linearGradient4613);fill-opacity:1;stroke:none;stroke-width:1.13532853px;stroke-linecap:butt;stroke-linejoin:miter;stroke-opacity:1"
       d="M 221.25556,727.61109 51.631683,855.20543 1.4293834,694.23932 132.68416,644.79054 Z"
       id="path3713-3-6-7"
       inkscape:connector-curvature="0"
       sodipodi:nodetypes="ccccc" />
    <path
       style="fill:url(#linearGradient4629);fill-opacity:1;stroke:none;stroke-width:0.88721746px;stroke-linecap:butt;stroke-linejoin:miter;stroke-opacity:1"
       d="M 154.86641,727.47437 51.631683,855.20543 20.937563,693.77604 Z"
       id="path3713-3-6-3"
       inkscape:connector-curvature="0" />
    <path
       style="fill:url(#linearGradient4669);fill-opacity:1;stroke:none;stroke-width:0.88721746px;stroke-linecap:butt;stroke-linejoin:miter;stroke-opacity:1"
       d="M 269.931,795.38032 301.36662,892.3799 166.69627,923.11138 136.00215,761.68199 Z"
       id="path3713-3-6-3-6"
       inkscape:connector-curvature="0"
       sodipodi:nodetypes="ccccc" />
    <path
       style="fill:url(#linearGradient4637);fill-opacity:1;stroke:none;stroke-width:0.78700703px;stroke-linecap:butt;stroke-linejoin:miter;stroke-opacity:1"
       d="M 121.79646,791.71256 65.932013,706.26696 267.29203,744.0305 231.03484,867.24303 Z"
       id="path3713-3-5"
       inkscape:connector-curvature="0"
       sodipodi:nodetypes="ccccc" />
  </g>
</svg>

<svg xmlns="http://www.w3.org/2000/svg" xmlns:xlink="http://www.w3.org/1999/xlink" width="1291.323" height="1128.38" viewBox="0 0 341.663 298.55"><defs><linearGradient id="f"><stop offset="0" stop-color="#5bcefa"/><stop offset="1" stop-color="#5bcefa" stop-opacity="0"/></linearGradient><linearGradient xlink:href="#a" id="n" x1="90.713" y1="63.078" x2="130.533" y2="63.078" gradientUnits="userSpaceOnUse" gradientTransform="matrix(-3.39574 .0095 .00595 3.3113 463.394 564.641)"/><linearGradient id="e"><stop offset="0" stop-color="#429bbb"/><stop offset="1" stop-color="#429bbb" stop-opacity="0"/></linearGradient><linearGradient id="d"><stop offset="0" stop-color="#82dafb"/><stop offset="1" stop-color="#82dafb" stop-opacity="0"/></linearGradient><linearGradient id="a"><stop offset="0" stop-color="#fe66cb"/><stop offset="1" stop-color="#fe66cb" stop-opacity="0"/></linearGradient><linearGradient id="c"><stop offset="0" stop-color="#fe66cb"/><stop offset="1" stop-color="#fe66cb" stop-opacity="0"/></linearGradient><linearGradient id="b"><stop offset="0" stop-color="#82dafb"/><stop offset="1" stop-color="#82dafb" stop-opacity="0"/></linearGradient><linearGradient xlink:href="#b" id="m" x1="71.392" y1="55.663" x2="136.11" y2="55.663" gradientUnits="userSpaceOnUse" gradientTransform="matrix(-3.39574 .0095 .00595 3.3113 463.394 564.641)"/><linearGradient id="g"><stop offset="0" stop-color="#fe66cb"/><stop offset="1" stop-color="#fe66cb" stop-opacity="0"/></linearGradient><linearGradient xlink:href="#c" id="p" x1="57.696" y1="66.823" x2="117.367" y2="66.823" gradientUnits="userSpaceOnUse" gradientTransform="matrix(-3.39574 .0095 .00595 3.3113 463.394 564.641)"/><linearGradient xlink:href="#d" id="l" x1="82.411" y1="78.533" x2="127.706" y2="78.533" gradientUnits="userSpaceOnUse" gradientTransform="matrix(-3.39574 .0095 .00595 3.3113 463.394 564.641)"/><linearGradient xlink:href="#e" id="o" x1="47.719" y1="83.607" x2="96.684" y2="83.607" gradientUnits="userSpaceOnUse" gradientTransform="matrix(-3.39574 .0095 .00595 3.3113 463.394 564.641)"/><linearGradient xlink:href="#f" id="j" x1="45.497" y1="52.63" x2="95.066" y2="52.63" gradientUnits="userSpaceOnUse" gradientTransform="matrix(-3.39574 .0095 .00595 3.3113 463.394 564.641)"/><linearGradient xlink:href="#g" id="k" x1="100.486" y1="82.449" x2="140.305" y2="82.449" gradientUnits="userSpaceOnUse" gradientTransform="matrix(-3.39574 .0095 .00595 3.3113 463.394 564.641)"/><linearGradient xlink:href="#a" id="h" x1="161.226" y1="64.938" x2="68.244" y2="37.724" gradientUnits="userSpaceOnUse" gradientTransform="matrix(1.62906 0 0 2.4391 -29.695 640.147)" spreadMethod="pad"/><linearGradient xlink:href="#f" id="i" x1="161.226" y1="64.938" x2="68.244" y2="37.724" gradientUnits="userSpaceOnUse" gradientTransform="matrix(1.37648 0 0 2.9354 651.332 -31.062)"/></defs><path transform="matrix(1 -.00336 .0015 1 27.734 -641.229)" fill="url(#h)" d="M-29.695 641.279h342.441v285.206H-29.695z"/><path transform="matrix(.00148 1 1 -.0034 27.734 -641.229)" fill="url(#i)" d="M651.332-29.698h289.347v343.236H651.332z"/><path d="M308.647 801.88l-166.65-3.275 113.66-121.292z" fill="url(#j)" transform="translate(27.734 -641.229)"/><path d="M121.796 791.713L18.562 919.443l-30.694-161.429z" fill="url(#k)" transform="translate(27.734 -641.229)"/><path d="M137.356 747.439l46.095 156.155L31.05 833.9z" fill="url(#l)" transform="translate(27.734 -641.229)"/><path d="M221.256 727.611L51.632 855.205 1.429 694.24l131.255-49.448z" fill="url(#m)" transform="translate(27.734 -641.229)"/><path d="M154.866 727.474L51.632 855.205 20.938 693.776z" fill="url(#n)" transform="translate(27.734 -641.229)"/><path d="M269.931 795.38l31.436 97-134.67 30.731-30.695-161.429z" fill="url(#o)" transform="translate(27.734 -641.229)"/><path d="M121.796 791.713l-55.864-85.446 201.36 37.763-36.257 123.213z" fill="url(#p)" transform="translate(27.734 -641.229)"/></svg>
